img/facebook_gray.svg

<?xml version="1.0" encoding="UTF-8" standalone="no"?>
<svg width="18px" height="32px" viewBox="0 0 18 32" version="1.1" xmlns="http://www.w3.org/2000/svg" xmlns:xlink="http://www.w3.org/1999/xlink" xmlns:sketch="http://www.bohemiancoding.com/sketch/ns">
    <!-- Generator: Sketch 3.0.4 (8053) - http://www.bohemiancoding.com/sketch -->
    <title>facebook_gray</title>
    <desc>Created with Sketch.</desc>
    <defs></defs>
    <g id="Social" stroke="none" stroke-width="1" fill="none" fill-rule="evenodd" sketch:type="MSPage">
        <g id="facebook_gray" sketch:type="MSArtboardGroup" transform="translate(0.500000, 0.000000)" fill="#A7A9AC">
            <path d="M10.8576316,32 L10.8576316,17.4035556 L15.7885263,17.4035556 L16.5284737,11.7155556 L10.8576316,11.7155556 L10.8576316,8.08355556 C10.8576316,6.43555556 11.3175263,5.31377778 13.6957368,5.31377778 L16.7271053,5.31288889 L16.7271053,0.224 C16.2027895,0.155555556 14.4034737,0 12.3088947,0 C7.93721053,0 4.94431579,2.65066667 4.94431579,7.52 L4.94431579,11.7155556 L0,11.7155556 L0,17.4035556 L4.94431579,17.4035556 L4.94431579,32" id="Imported-Layers" sketch:type="MSShapeGroup"></path>
        </g>
    </g>
</svg>

<svg viewBox="0 0 18 32" xmlns="http://www.w3.org/2000/svg"><g fill="none" fill-rule="evenodd"><path d="m10.858 32v-14.596h4.931l.74-5.688h-5.671v-3.632c0-1.648.46-2.77 2.838-2.77h3.03v-5.089c-.524-.068-2.324-.224-4.418-.224-4.372 0-7.365 2.651-7.365 7.52v4.196h-4.944v5.688h4.944v14.596" transform="translate(.5)" fill="#a7a9ac"/></g></svg>
